assets/images/icons/theme-light.svg

<?xml version="1.0" encoding="UTF-8" standalone="no"?>
<!-- Created with Inkscape (http://www.inkscape.org/) -->

<svg
   width="5.4073997"
   height="5.4073997"
   viewBox="0 0 5.4073997 5.4073997"
   version="1.1"
   id="svg5"
   xml:space="preserve"
   inkscape:version="1.2.2 (b0a8486541, 2022-12-01)"
   xmlns:inkscape="http://www.inkscape.org/namespaces/inkscape"
   xmlns:sodipodi="http://sodipodi.sourceforge.net/DTD/sodipodi-0.dtd"
   xmlns="http://www.w3.org/2000/svg"
   xmlns:svg="http://www.w3.org/2000/svg"><sodipodi:namedview
     id="namedview7"
     pagecolor="#505050"
     bordercolor="#ffffff"
     borderopacity="1"
     inkscape:showpageshadow="0"
     inkscape:pageopacity="0"
     inkscape:pagecheckerboard="1"
     inkscape:deskcolor="#505050"
     inkscape:document-units="px"
     showgrid="true"
     inkscape:zoom="64"
     inkscape:cx="5.0859375"
     inkscape:cy="4.5"
     inkscape:window-width="2560"
     inkscape:window-height="1355"
     inkscape:window-x="0"
     inkscape:window-y="0"
     inkscape:window-maximized="1"
     inkscape:current-layer="layer2"><inkscape:grid
       type="xygrid"
       id="grid968"
       originx="-7.7402384"
       originy="-1.1434241" /></sodipodi:namedview><defs
     id="defs2"><inkscape:path-effect
       effect="copy_rotate"
       starting_point="3.6300689,1.182482"
       origin="2.7036998,1.182482"
       id="path-effect1162"
       is_visible="true"
       lpeversion="1.2"
       lpesatellites=""
       method="normal"
       num_copies="8"
       starting_angle="0"
       rotation_angle="45"
       gap="-0.01"
       copies_to_360="true"
       mirror_copies="false"
       split_items="false"
       link_styles="false" /><inkscape:path-effect
       effect="transform_2pts"
       start="0.1067055,1.1824821"
       end="0.5779766,1.1824821"
       id="path-effect1160"
       is_visible="true"
       lpeversion="1"
       first_knot="1"
       last_knot="2"
       helper_size="3"
       stretch="1"
       offset="0"
       elastic="false"
       from_original_width="false"
       flip_vertical="false"
       flip_horizontal="false"
       lock_length="false"
       lock_angle="false" /><inkscape:path-effect
       effect="mirror_symmetry"
       start_point="16,-2.7755576e-17"
       end_point="16,31.4"
       center_point="16,15.7"
       id="path-effect1035"
       is_visible="true"
       lpeversion="1.2"
       lpesatellites=""
       mode="free"
       discard_orig_path="false"
       fuse_paths="false"
       oposite_fuse="false"
       split_items="false"
       split_open="false"
       link_styles="false" /><inkscape:path-effect
       effect="mirror_symmetry"
       start_point="0.5779766,1.1824821"
       end_point="0.5779766,1.1824821"
       center_point="0.5779766,1.1824821"
       id="path-effect1035-3"
       is_visible="true"
       lpeversion="1.2"
       lpesatellites=""
       mode="free"
       discard_orig_path="false"
       fuse_paths="false"
       oposite_fuse="false"
       split_items="false"
       split_open="false"
       link_styles="false" /><inkscape:path-effect
       effect="mirror_symmetry"
       start_point="-7.8395538,51.47666"
       end_point="24.160446,51.47666"
       center_point="8.1604462,51.47666"
       id="path-effect1035-7"
       is_visible="true"
       lpeversion="1.2"
       lpesatellites=""
       mode="horizontal"
       discard_orig_path="false"
       fuse_paths="false"
       oposite_fuse="false"
       split_items="false"
       split_open="false"
       link_styles="false" /><inkscape:path-effect
       effect="mirror_symmetry"
       start_point="0.34234105,1.1824821"
       end_point="3.28,1.1824821"
       center_point="0.5779766,1.1824821"
       id="path-effect1035-35"
       is_visible="true"
       lpeversion="1.2"
       lpesatellites=""
       mode="horizontal"
       discard_orig_path="false"
       fuse_paths="false"
       oposite_fuse="false"
       split_items="false"
       split_open="false"
       link_styles="false" /></defs><g
     inkscape:label="Reference"
     inkscape:groupmode="layer"
     id="layer1"
     transform="translate(-7.7402383,-1.1434241)"><path
       id="path1260"
       style="opacity:1;fill:#c5c5c5;fill-opacity:1;stroke:none;stroke-width:0.212472;stroke-linecap:round;stroke-dasharray:none;stroke-opacity:1"
       d="m 20.249391,1.6754745 a 2.1279008,2.1279008 0 0 0 -1.93164,2.1152343 2.1279008,2.1279008 0 0 0 2.128906,2.1289063 2.1279008,2.1279008 0 0 0 2.115234,-1.9511719 1.6468906,1.6468906 0 0 1 -0.982422,0.328125 1.6468906,1.6468906 0 0 1 -1.648437,-1.6484375 1.6468906,1.6468906 0 0 1 0.318359,-0.9726562 z" /></g><g
     inkscape:groupmode="layer"
     id="layer2"
     inkscape:label="Icons"
     transform="translate(-7.7402383,-1.1434241)"><g
       id="g1293"
       transform="translate(7.7402383,2.6646419)"><g
         id="g1297"><path
           style="fill:none;stroke:#1b1b1b;stroke-width:0.213411;stroke-linecap:round;stroke-dasharray:none;stroke-opacity:1"
           d="M 0.1067055,1.1824821 H 0.5779766 M 0.86734759,3.0188344 1.2005866,2.6855954 M 2.7036999,3.7794763 V 3.3082052 M 4.5400522,3.0188342 4.2068132,2.6855952 M 5.3006941,1.1824819 H 4.829423 M 4.540052,-0.65387035 4.206813,-0.32063136 M 2.7036997,-1.4145123 v 0.4712711 m -1.83635225,0.28937099 0.33323895,0.33323899"
           id="path1033-2"
           inkscape:path-effect="#path-effect1162"
           inkscape:original-d="M 0.1067055,1.1824821 H 0.5779766"
           class="UnoptimicedTransforms" /><circle
           style="opacity:1;fill:#1b1b1b;fill-opacity:1"
           id="path964"
           cx="2.7036998"
           cy="1.182482"
           r="1.182482" /></g></g></g></svg>

<?xml version="1.0" encoding="UTF-8"?>
<svg width="5.4074" height="5.4074" version="1.1" viewBox="0 0 5.4074 5.4074" xml:space="preserve" xmlns="http://www.w3.org/2000/svg"><g transform="translate(-7.7402 -1.1434)"><g transform="translate(7.7402 2.6646)"><path class="UnoptimicedTransforms" d="m0.10671 1.1825h0.47127m0.28937 1.8364 0.33324-0.33324m1.5031 1.0939v-0.47127m1.8364-0.28937-0.33324-0.33324m1.0939-1.5031h-0.47127m-0.28937-1.8364-0.33324 0.33324m-1.5031-1.0939v0.47127m-1.8364 0.28937 0.33324 0.33324" fill="none" stroke="#1b1b1b" stroke-linecap="round" stroke-width=".21341"/><circle cx="2.7037" cy="1.1825" r="1.1825" fill="#1b1b1b"/></g></g></svg>
